bskyembed/assets/logo_full_name.svg

<svg width="120" height="28" viewBox="0 0 120 28" fill="none" xmlns="http://www.w3.org/2000/svg">
<path d="M6.23031 1.75921C9.52558 4.31406 13.0698 9.49434 14.3713 12.2741C15.6727 9.49434 19.2169 4.31406 22.5122 1.75921C24.8899 -0.0842317 28.7425 -1.5106 28.7425 3.02818C28.7425 3.93462 28.2393 10.6429 27.9441 11.7321C26.9181 15.5183 23.1796 16.4841 19.8539 15.8995C25.667 16.9212 27.1457 20.3055 23.9521 23.6897C16.7665 31.3043 14.3713 19.6163 14.3713 19.6163C14.3713 19.6163 11.976 31.3043 4.79042 23.6897C1.59681 20.3055 3.07554 16.9212 8.88858 15.8995C5.56292 16.4841 1.82441 15.5183 0.798403 11.7321C0.503259 10.6429 0 3.93462 0 3.02818C0 -1.5106 3.85263 -0.0842317 6.23031 1.75921Z" fill="#006AFF"/>
<path d="M46.662 12.8778C48.641 13.6012 49.6915 15.2726 49.6915 17.1435C49.6915 20.3116 47.6149 22.2324 43.6326 22.2324H35.497V4.47113H43.3638C47.1507 4.47113 48.983 6.44184 48.983 9.06113C48.983 10.8073 48.2012 12.0796 46.662 12.8778ZM43.1195 7.2401H38.7952V11.88H43.1195C44.8053 11.88 45.7092 10.9819 45.7092 9.48521C45.7092 8.1132 44.7808 7.2401 43.1195 7.2401ZM38.7952 19.4385H43.4616C45.3183 19.4385 46.32 18.5654 46.32 16.9938C46.32 15.3474 45.3672 14.5242 43.4616 14.5242H38.7952V19.4385Z" fill="#006AFF"/>
<path d="M54.2645 22.2324H51.1862V4.47113H54.2645V22.2324Z" fill="#006AFF"/>
<path d="M64.4712 16.5698V9.36048H67.5495V22.2324H64.5689V20.3615C63.6161 21.8084 62.2968 22.5318 60.6111 22.5318C57.9481 22.5318 56.2135 20.8854 56.2135 17.8919V9.36048H59.2918V17.368C59.2918 18.9895 60.0736 19.8127 61.6616 19.8127C63.1519 19.8127 64.4712 18.6902 64.4712 16.5698Z" fill="#006AFF"/>
<path d="M81.5614 16.021V16.7693H72.131C72.3508 18.9895 73.548 20.0871 75.4047 20.0871C76.8217 20.0871 77.7746 19.4635 78.2876 18.2411H81.2438C80.5841 20.8604 78.3853 22.5318 75.3803 22.5318C73.4991 22.5318 71.9844 21.9081 70.8361 20.6858C69.6878 19.4635 69.1015 17.842 69.1015 15.7965C69.1015 13.7759 69.6634 12.1544 70.8117 10.9071C71.9599 9.68477 73.4502 9.06113 75.3314 9.06113C77.2371 9.06113 78.7518 9.70972 79.8756 10.9819C80.9995 12.2542 81.5614 13.9505 81.5614 16.021ZM75.307 11.5058C73.6213 11.5058 72.4486 12.5036 72.1554 14.5741H78.4831C78.2143 12.7032 77.0905 11.5058 75.307 11.5058Z" fill="#006AFF"/>
<path d="M88.3842 22.5817C84.7195 22.5817 82.7894 21.1099 82.6184 18.1413H85.6234C85.7944 19.7379 86.5762 20.3366 88.433 20.3366C90.0943 20.3366 90.925 19.8127 90.925 18.7899C90.925 17.8669 90.3386 17.4179 88.4574 17.0936L87.016 16.8442C84.2553 16.3702 82.8871 15.073 82.8871 12.9527C82.8871 10.5329 84.7683 9.06113 88.1154 9.06113C91.7068 9.06113 93.5636 10.508 93.6857 13.4266H90.7784C90.7051 11.855 89.8012 11.3062 88.1154 11.3062C86.6495 11.3062 85.9166 11.8052 85.9166 12.803C85.9166 13.701 86.5518 14.1002 88.0177 14.3746L89.6057 14.624C92.6596 15.1978 93.9789 16.3453 93.9789 18.5405C93.9789 21.1348 91.9267 22.5817 88.3842 22.5817Z" fill="#006AFF"/>
<path d="M107.49 22.2324H103.972L100.307 16.2455L98.4015 18.1912V22.2324H95.372V4.47113H98.4015V14.6988L103.532 9.36048H107.197L102.433 14.2249L107.49 22.2324Z" fill="#006AFF"/>
<path d="M115.529 12.6034L116.555 9.36048H119.78L114.918 23.2802C114.405 24.7021 113.77 25.7248 112.964 26.2986C112.158 26.8723 111.009 27.1467 109.495 27.1467C108.982 27.1467 108.542 27.1218 108.151 27.0719V24.6023H109.324C110.716 24.6023 111.4 23.7292 111.4 22.5318C111.4 21.9331 111.205 21.06 110.814 19.9374L107.149 9.36048H110.472L111.498 12.5785C112.255 14.9982 112.915 17.393 113.501 19.7628C114.039 17.7173 114.723 15.3225 115.529 12.6034Z" fill="#006AFF"/>
</svg>

<svg xmlns="http://www.w3.org/2000/svg" fill="none" viewBox="0 0 120 28"><path fill="#006aff" d="M6.23 1.76c3.296 2.554 6.84 7.734 8.141 10.514 1.302-2.78 4.846-7.96 8.141-10.515 2.378-1.843 6.23-3.27 6.23 1.27 0 .906-.503 7.614-.798 8.703-1.026 3.786-4.764 4.752-8.09 4.168 5.813 1.021 7.292 4.405 4.098 7.79-7.186 7.614-9.58-4.074-9.58-4.074S11.975 31.304 4.79 23.69C1.597 20.305 3.076 16.92 8.89 15.9c-3.326.584-7.065-.382-8.09-4.168C.502 10.642 0 3.935 0 3.028 0-1.51 3.853-.084 6.23 1.76ZM46.662 12.878c1.979.723 3.03 2.395 3.03 4.265 0 3.169-2.077 5.09-6.06 5.09h-8.135V4.47h7.867c3.787 0 5.619 1.97 5.619 4.59 0 1.746-.782 3.019-2.321 3.817ZM43.12 7.24h-4.325v4.64h4.325c1.685 0 2.59-.898 2.59-2.395 0-1.372-.93-2.245-2.59-2.245ZM38.795 19.44h4.667c1.856 0 2.858-.874 2.858-2.445q0-2.47-2.858-2.47h-4.667v4.915ZM54.265 22.232h-3.079V4.472h3.078v17.76ZM64.471 16.57V9.36h3.078v12.872h-2.98v-1.87q-1.43 2.17-3.958 2.17c-2.663 0-4.397-1.647-4.397-4.64V9.36h3.078v8.008c0 1.622.782 2.445 2.37 2.445 1.49 0 2.81-1.123 2.81-3.243ZM81.561 16.021v.748h-9.43c.22 2.22 1.417 3.318 3.274 3.318 1.417 0 2.37-.623 2.883-1.846h2.956c-.66 2.62-2.859 4.29-5.864 4.29-1.88 0-3.396-.623-4.544-1.845-1.148-1.223-1.734-2.844-1.734-4.89 0-2.02.561-3.642 1.71-4.889 1.148-1.222 2.638-1.846 4.52-1.846 1.905 0 3.42.649 4.544 1.92 1.123 1.273 1.685 2.97 1.685 5.04Zm-6.254-4.515c-1.686 0-2.858.998-3.152 3.068h6.328c-.269-1.87-1.392-3.068-3.176-3.068ZM88.384 22.582c-3.665 0-5.595-1.472-5.766-4.44h3.005c.171 1.596.953 2.195 2.81 2.195 1.661 0 2.492-.524 2.492-1.547 0-.923-.586-1.372-2.468-1.696l-1.441-.25c-2.76-.474-4.129-1.771-4.129-3.891 0-2.42 1.881-3.892 5.228-3.892 3.592 0 5.449 1.447 5.57 4.366h-2.907c-.073-1.572-.977-2.12-2.663-2.12q-2.198 0-2.198 1.496c0 .898.635 1.297 2.1 1.572l1.589.249c3.054.574 4.373 1.721 4.373 3.917 0 2.594-2.052 4.04-5.595 4.04ZM107.49 22.232h-3.518l-3.665-5.986-1.906 1.945v4.041h-3.029V4.472h3.03v10.227l5.13-5.339h3.665l-4.764 4.865 5.057 8.007Z"/><path fill="#006aff" d="m115.529 12.603 1.026-3.243h3.225l-4.862 13.92c-.513 1.422-1.148 2.445-1.954 3.019-.806.573-1.955.848-3.469.848-.513 0-.953-.025-1.344-.075v-2.47h1.173c1.392 0 2.076-.873 2.076-2.07 0-.599-.195-1.472-.586-2.595L107.149 9.36h3.323l1.026 3.219c.757 2.42 1.417 4.814 2.003 7.184.538-2.046 1.222-4.44 2.028-7.16Z"/></svg>
